artboard.svg

<svg fill="currentColor" viewBox="0 0 24 24"><path d="M17 9v6H7V9zm2-6h-2v3h2zM7 3H5v3h2zm16 4h-3v2h3zm-4 0H5v10h14zM4 7H1v2h3zm19 8h-3v2h3zM4 15H1v2h3zm15 3h-2v3h2zM7 18H5v3h2z"/></svg>

<svg  viewBox="0 0 24 24" fill="currentColor"><path  d="M17 9V15H7V9H17M19 3H17V6H19V3M7 3H5V6H7V3M23 7H20V9H23V7M19 7H5V17H19V7M4 7H1V9H4V7M23 15H20V17H23V15M4 15H1V17H4V15M19 18H17V21H19V18M7 18H5V21H7V18Z"/></svg>
